svg/clockface/clockface/clock_05_35.svg

<?xml version="1.0" encoding="UTF-8" standalone="no"?>
<svg
   height="1000"
   width="1000"
   version="1.1"
   id="clock"
   viewBox="0 0 1000 1000"
   sodipodi:docname="clock_05_35.svg"
   xmlns:inkscape="http://www.inkscape.org/namespaces/inkscape"
   xmlns:sodipodi="http://sodipodi.sourceforge.net/DTD/sodipodi-0.dtd"
   xmlns="http://www.w3.org/2000/svg"
   xmlns:svg="http://www.w3.org/2000/svg">
  <defs
     id="defs10" />
  <sodipodi:namedview
     id="namedview8"
     pagecolor="#505050"
     bordercolor="#ffffff"
     borderopacity="1"
     inkscape:showpageshadow="0"
     inkscape:pageopacity="0"
     inkscape:pagecheckerboard="1"
     inkscape:deskcolor="#505050" />
  <g
     id="container">
    <g
       transform="translate(500,500) rotate(270)"
       id="g4">
      <path
         id="clock_05_35"
         style="color:#000000;fill:#000000;stroke-linecap:round;stroke-linejoin:round;-inkscape-stroke:none"
         d="M -229.91211,-164.74414 A 30,30 0 0 0 -259.80859,-150 a 30,30 0 0 0 10.98242,40.98047 L -60,0 -170.88477,64.019531 A 30,30 0 0 0 -181.86523,105 a 30,30 0 0 0 40.98046,10.98047 L 15,25.980469 a 30.003,30.003 0 0 0 0,-51.960938 L -218.82617,-160.98047 a 30,30 0 0 0 -11.08594,-3.76367 z M 370,0 C 370,-203.98981 203.98981,-370 0,-370 -203.98981,-370 -370,-203.98981 -370,0 -370,203.98981 -203.98981,370 0,370 203.98981,370 370,203.98981 370,0 Z M 310,0 C 310,171.56344 171.56344,310 0,310 -171.56344,310 -310,171.56344 -310,0 c 0,-171.56344 138.43656,-310 310,-310 171.56344,0 310,138.43656 310,310 z" />
    </g>
  </g>
</svg>

<svg xmlns="http://www.w3.org/2000/svg" width="1000" height="1000"><path d="M-229.912-164.744A30 30 0 0 0-259.81-150a30 30 0 0 0 10.983 40.98L-60 0l-110.885 64.02a30 30 0 0 0-10.98 40.98 30 30 0 0 0 40.98 10.98L15 25.98a30.003 30.003 0 0 0 0-51.96l-233.826-135a30 30 0 0 0-11.086-3.764zM370 0c0-203.99-166.01-370-370-370S-370-203.99-370 0-203.99 370 0 370 370 203.99 370 0Zm-60 0c0 171.563-138.437 310-310 310S-310 171.563-310 0-171.563-310 0-310 310-171.563 310 0z" style="-inkscape-stroke:none" transform="rotate(-90 500 0)" stroke-linecap="round" stroke-linejoin="round"/></svg>
